assets/images/logos/Amazon_logo.svg

<svg width="400" height="300" viewBox="0 0 400 300" fill="none" xmlns="http://www.w3.org/2000/svg">
<path fill-rule="evenodd" clip-rule="evenodd" d="M246.8 183C224.2 199.7 191.5 208.5 163.3 208.5C123.8 208.5 88.1999 193.9 61.1999 169.6C59.0999 167.7 60.9999 165.1 63.4999 166.6C92.5999 183.5 128.5 193.7 165.6 193.7C190.6 193.7 218.2 188.5 243.5 177.8C247.4 176.1 250.6 180.3 246.8 183ZM256.2 172.3C253.3 168.6 237.1 170.6 229.8 171.4C227.6 171.7 227.2 169.7 229.2 168.4C242.1 159.3 263.3 161.9 265.8 165C268.3 168.1 265.2 189.3 253 199.4C251.1 201 249.4 200.1 250.2 198.1C253 191.3 259.1 176 256.2 172.3Z" fill="#F4F7FE"/>
<path fill-rule="evenodd" clip-rule="evenodd" d="M230.3 104.2V95.4004C230.3 94.1004 231.3 93.2004 232.5 93.2004H272.1C273.4 93.2004 274.4 94.1004 274.4 95.4004V103C274.4 104.3 273.3 105.9 271.4 108.6L250.9 137.9C258.5 137.7 266.6 138.8 273.5 142.7C275.1 143.6 275.5 144.9 275.6 146.1V155.5C275.6 156.8 274.2 158.3 272.7 157.5C260.5 151.1 244.4 150.4 230.9 157.6C229.5 158.3 228.1 156.9 228.1 155.6V146.6C228.1 145.2 228.1 142.7 229.6 140.5L253.3 106.4H232.6C231.4 106.4 230.3 105.5 230.3 104.2ZM86 159.3H74C72.8 159.2 71.9 158.4 71.9 157.3V95.5004C71.9 94.3004 72.9 93.3004 74.2 93.3004H85.4C86.6 93.4004 87.5 94.2004 87.6 95.4004V103.5H87.8C90.7 95.7004 96.2 92.1004 103.6 92.1004C111.1 92.1004 115.8 95.7004 119.2 103.5C122.1 95.7004 128.7 92.1004 135.8 92.1004C140.8 92.1004 146.4 94.2004 149.7 98.9004C153.5 104.1 152.7 111.6 152.7 118.3V157.3C152.7 158.5 151.7 159.5 150.4 159.5H138.4C137.2 159.4 136.2 158.5 136.2 157.3V124.6C136.2 122 136.4 115.5 135.9 113C135 108.9 132.3 107.7 128.8 107.7C125.9 107.7 122.8 109.6 121.6 112.8C120.4 115.9 120.5 121.1 120.5 124.6V157.3C120.5 158.5 119.5 159.5 118.2 159.5H106.2C105 159.4 104 158.5 104 157.3V124.6C104 117.7 105.1 107.6 96.6 107.6C88 107.6 88.3 117.5 88.3 124.6V157.3C88.4 158.3 87.3 159.3 86 159.3ZM308.5 92.0004C326.4 92.0004 336 107.3 336 126.8C336 145.6 325.3 160.6 308.5 160.6C291 160.6 281.4 145.3 281.4 126.2C281.4 106.9 291.1 92.0004 308.5 92.0004ZM308.6 104.6C299.7 104.6 299.2 116.7 299.2 124.2C299.2 131.7 299.1 147.9 308.5 147.9C317.8 147.9 318.3 134.9 318.3 127C318.3 121.8 318.1 115.6 316.5 110.6C315.1 106.3 312.4 104.6 308.6 104.6ZM359.1 159.3H347.1C345.9 159.2 344.9 158.3 344.9 157.1V95.3004C345 94.2004 346 93.3004 347.2 93.3004H358.4C359.4 93.4004 360.3 94.1004 360.5 95.0004V104.4H360.7C364.1 96.0004 368.8 91.9004 377.1 91.9004C382.5 91.9004 387.8 93.8004 391.1 99.2004C394.2 104.1 394.2 112.5 394.2 118.4V157.3C394.1 158.4 393.1 159.2 391.9 159.2H380C378.9 159.1 378 158.3 377.9 157.3V123.8C377.9 117 378.7 107.2 370.4 107.2C367.5 107.2 364.8 109.2 363.4 112.1C361.7 115.9 361.5 119.6 361.5 123.8V157.1C361.5 158.3 360.4 159.3 359.1 159.3ZM198.8 129.8C198.8 134.5 198.9 138.4 196.5 142.6C194.6 146 191.5 148.1 188.2 148.1C183.6 148.1 180.9 144.6 180.9 139.4C180.9 129.1 190.1 127.3 198.8 127.3V129.8ZM210.9 159.2C210.1 159.9 209 160 208.1 159.5C204.1 156.2 203.4 154.6 201.2 151.5C194.6 158.2 189.9 160.3 181.4 160.3C171.3 160.3 163.4 154.1 163.4 141.5C163.4 131.7 168.7 125.1 176.2 121.8C182.7 118.9 191.9 118.4 198.8 117.6V116C198.8 113.1 199 109.8 197.3 107.3C195.8 105.1 193 104.2 190.5 104.2C185.9 104.2 181.8 106.6 180.8 111.4C180.6 112.5 179.8 113.5 178.7 113.6L167 112.3C166 112.1 164.9 111.3 165.2 109.8C167.9 95.6004 180.7 91.4004 192.1 91.4004C198 91.4004 205.6 93.0004 210.2 97.4004C216.1 102.9 215.5 110.2 215.5 118.1V136.9C215.5 142.5 217.8 145 220 148.1C220.8 149.2 220.9 150.5 219.9 151.3C217.7 153.3 213.4 157.1 210.9 159.2ZM41 129.8C41 134.5 41.1 138.4 38.7 142.6C36.8 146 33.8 148.1 30.4 148.1C25.8 148.1 23.1 144.6 23.1 139.4C23.1 129.1 32.3 127.3 41 127.3V129.8ZM53.2 159.2C52.4 159.9 51.3 160 50.4 159.5C46.4 156.2 45.7 154.6 43.5 151.5C36.9 158.2 32.2 160.3 23.7 160.3C13.6 160.3 5.69995 154.1 5.69995 141.5C5.69995 131.7 11 125.1 18.5 121.8C25 118.9 34.1999 118.4 41.0999 117.6V116C41.0999 113.1 41.2999 109.8 39.5999 107.3C38.0999 105.1 35.2999 104.2 32.7999 104.2C28.1999 104.2 24.1 106.6 23.1 111.4C22.9 112.5 22.1 113.5 21 113.6L9.29995 112.3C8.29995 112.1 7.19995 111.3 7.49995 109.8C10.2 95.6004 23 91.4004 34.4 91.4004C40.3 91.4004 47.9 93.0004 52.5 97.4004C58.4 102.9 57.7999 110.2 57.7999 118.1V136.9C57.7999 142.5 60.0999 145 62.2999 148.1C63.0999 149.2 63.1999 150.5 62.2999 151.3C59.9999 153.3 55.6 157.1 53.2 159.2Z" fill="#F4F7FE"/>
</svg>

<?xml version="1.0" encoding="utf-8"?>
<!-- Generator: Adobe Illustrator 23.0.3, SVG Export Plug-In . SVG Version: 6.00 Build 0)  -->
<svg version="1.1"
	 id="logosvg.com" inkscape:version="0.91 r13725" sodipodi:docname="Amazon II.svg" xmlns:cc="http://creativecommons.org/ns#" xmlns:dc="http://purl.org/dc/elements/1.1/" xmlns:inkscape="http://www.inkscape.org/namespaces/inkscape" xmlns:rdf="http://www.w3.org/1999/02/22-rdf-syntax-ns#" xmlns:sodipodi="http://sodipodi.sourceforge.net/DTD/sodipodi-0.dtd" xmlns:svg="http://www.w3.org/2000/svg"
	 xmlns="http://www.w3.org/2000/svg" xmlns:xlink="http://www.w3.org/1999/xlink" x="0px" y="0px" viewBox="0 0 400 300"
	 style="enable-background:new 0 0 400 300;" xml:space="preserve">
<style type="text/css">
	.st0{fill-rule:evenodd;clip-rule:evenodd;fill:white;}
	.st1{fill-rule:evenodd;clip-rule:evenodd;}
</style>
<path fill="white" id="orange" class="st0" d="M246.8,183c-22.6,16.7-55.3,25.5-83.5,25.5c-39.5,0-75.1-14.6-102.1-38.9c-2.1-1.9-0.2-4.5,2.3-3
	c29.1,16.9,65,27.1,102.1,27.1c25,0,52.6-5.2,77.9-15.9C247.4,176.1,250.6,180.3,246.8,183 M256.2,172.3c-2.9-3.7-19.1-1.7-26.4-0.9
	c-2.2,0.3-2.6-1.7-0.6-3c12.9-9.1,34.1-6.5,36.6-3.4c2.5,3.1-0.6,24.3-12.8,34.4c-1.9,1.6-3.6,0.7-2.8-1.3
	C253,191.3,259.1,176,256.2,172.3"/>
<path fill="white" id="text" class="st1" d="M230.3,104.2v-8.8c0-1.3,1-2.2,2.2-2.2h39.6c1.3,0,2.3,0.9,2.3,2.2v7.6c0,1.3-1.1,2.9-3,5.6
	l-20.5,29.3c7.6-0.2,15.7,0.9,22.6,4.8c1.6,0.9,2,2.2,2.1,3.4v9.4c0,1.3-1.4,2.8-2.9,2c-12.2-6.4-28.3-7.1-41.8,0.1
	c-1.4,0.7-2.8-0.7-2.8-2v-9c0-1.4,0-3.9,1.5-6.1l23.7-34.1h-20.7C231.4,106.4,230.3,105.5,230.3,104.2 M86,159.3H74
	c-1.2-0.1-2.1-0.9-2.1-2V95.5c0-1.2,1-2.2,2.3-2.2h11.2c1.2,0.1,2.1,0.9,2.2,2.1v8.1h0.2c2.9-7.8,8.4-11.4,15.8-11.4
	c7.5,0,12.2,3.6,15.6,11.4c2.9-7.8,9.5-11.4,16.6-11.4c5,0,10.6,2.1,13.9,6.8c3.8,5.2,3,12.7,3,19.4l0,39c0,1.2-1,2.2-2.3,2.2h-12
	c-1.2-0.1-2.2-1-2.2-2.2v-32.7c0-2.6,0.2-9.1-0.3-11.6c-0.9-4.1-3.6-5.3-7.1-5.3c-2.9,0-6,1.9-7.2,5.1c-1.2,3.1-1.1,8.3-1.1,11.8
	v32.7c0,1.2-1,2.2-2.3,2.2h-12c-1.2-0.1-2.2-1-2.2-2.2l0-32.7c0-6.9,1.1-17-7.4-17c-8.6,0-8.3,9.9-8.3,17v32.7
	C88.4,158.3,87.3,159.3,86,159.3 M308.5,92c17.9,0,27.5,15.3,27.5,34.8c0,18.8-10.7,33.8-27.5,33.8c-17.5,0-27.1-15.3-27.1-34.4
	C281.4,106.9,291.1,92,308.5,92 M308.6,104.6c-8.9,0-9.4,12.1-9.4,19.6c0,7.5-0.1,23.7,9.3,23.7c9.3,0,9.8-13,9.8-20.9
	c0-5.2-0.2-11.4-1.8-16.4C315.1,106.3,312.4,104.6,308.6,104.6 M359.1,159.3h-12c-1.2-0.1-2.2-1-2.2-2.2l0-61.8c0.1-1.1,1.1-2,2.3-2
	h11.2c1,0.1,1.9,0.8,2.1,1.7v9.4h0.2c3.4-8.4,8.1-12.5,16.4-12.5c5.4,0,10.7,1.9,14,7.3c3.1,4.9,3.1,13.3,3.1,19.2v38.9
	c-0.1,1.1-1.1,1.9-2.3,1.9H380c-1.1-0.1-2-0.9-2.1-1.9v-33.5c0-6.8,0.8-16.6-7.5-16.6c-2.9,0-5.6,2-7,4.9c-1.7,3.8-1.9,7.5-1.9,11.7
	v33.3C361.5,158.3,360.4,159.3,359.1,159.3 M198.8,129.8c0,4.7,0.1,8.6-2.3,12.8c-1.9,3.4-5,5.5-8.3,5.5c-4.6,0-7.3-3.5-7.3-8.7
	c0-10.3,9.2-12.1,17.9-12.1L198.8,129.8 M210.9,159.2c-0.8,0.7-1.9,0.8-2.8,0.3c-4-3.3-4.7-4.9-6.9-8c-6.6,6.7-11.3,8.8-19.8,8.8
	c-10.1,0-18-6.2-18-18.8c0-9.8,5.3-16.4,12.8-19.7c6.5-2.9,15.7-3.4,22.6-4.2V116c0-2.9,0.2-6.2-1.5-8.7c-1.5-2.2-4.3-3.1-6.8-3.1
	c-4.6,0-8.7,2.4-9.7,7.2c-0.2,1.1-1,2.1-2.1,2.2l-11.7-1.3c-1-0.2-2.1-1-1.8-2.5c2.7-14.2,15.5-18.4,26.9-18.4
	c5.9,0,13.5,1.6,18.1,6c5.9,5.5,5.3,12.8,5.3,20.7v18.8c0,5.6,2.3,8.1,4.5,11.2c0.8,1.1,0.9,2.4-0.1,3.2
	C217.7,153.3,213.4,157.1,210.9,159.2L210.9,159.2 M41,129.8c0,4.7,0.1,8.6-2.3,12.8c-1.9,3.4-4.9,5.5-8.3,5.5
	c-4.6,0-7.3-3.5-7.3-8.7c0-10.3,9.2-12.1,17.9-12.1V129.8 M53.2,159.2c-0.8,0.7-1.9,0.8-2.8,0.3c-4-3.3-4.7-4.9-6.9-8
	c-6.6,6.7-11.3,8.8-19.8,8.8c-10.1,0-18-6.2-18-18.8c0-9.8,5.3-16.4,12.8-19.7c6.5-2.9,15.7-3.4,22.6-4.2V116c0-2.9,0.2-6.2-1.5-8.7
	c-1.5-2.2-4.3-3.1-6.8-3.1c-4.6,0-8.7,2.4-9.7,7.2c-0.2,1.1-1,2.1-2.1,2.2l-11.7-1.3c-1-0.2-2.1-1-1.8-2.5
	c2.7-14.2,15.5-18.4,26.9-18.4c5.9,0,13.5,1.6,18.1,6c5.9,5.5,5.3,12.8,5.3,20.7v18.8c0,5.6,2.3,8.1,4.5,11.2c0.8,1.1,0.9,2.4,0,3.2
	C60,153.3,55.6,157.1,53.2,159.2L53.2,159.2"/>
</svg>
